X:125
T:Isaiah, Mighty Seer, In Days of Old
%%stretchlast false
M:4/4
L:1/4
K:Bb clef=C1
"^I"[B,DBf]2 "^V"[F,CAf] "^I"[B,Fd] | "^vi"[G,DGB] "^I"[B,Fd] "^V¹"[A,Ccf] "^I"[B,DBf] | "^IV"[E,EBg] [E,EBg] "^I"[B,DBf]2 | "^iii"[DAdf]2 "^I"[B,Bdf] "^ii"[CGce] | "^V"[F,FAf] "^vi"[G,DGB] "^vii°"[A,Cce] "^I"[B,FBd] | "^ii7¹"[E,GBc] "^V"[F,FAc] "^I"[B,DB]2 | [B,Bdf]2 "^iii"[DAdf] "^V"[FAcf] | "^IV"[EGeb] [E,Geb] "^vi"[G,Gdb] "^I"[B,Fdf] | "^IV"[E,Beg] "^V"[F,Acf] "^vi"[G,GBd]2 | "^I"[B,FBd]2 "^ii"[CEGe] "^V¹"[A,Ccf] | "^I"[B,FBd] "^ii"[CEGe] "^vi"[G,GBd] "^I"[B,DFB] | "^ii7¹"[E,B,Gc] "^V"[F,A,Fc] "^I"[B,DFB]2 | "^vi"[G,GB]2 "^iii"[DFAd] "^V¹"[A,Fc] | "^I"[B,FBd] "^♭v°¹"[G,GB=e] "^V"[F,Acf] "^V¹"[A,Fcf] | "^I"[B,FBd] "^♭v°¹"[G,GB=e] "^V"[F,CAf]2 | "^vi7³"[F,Gdb]2 "^IV"[E,Geb] "^V"[F,Fca] | "^vi"[G,DBg] "^V¹"[A,Fcf] "^I"[B,Bdf] "^ii"[CGce] | "^I¹"[DFBf] "^IV"[EGBe] "^I"[B,FBd]2 | "^V"[F,FAc]2 "^I"[B,FBd] "^ii"[CGce] | "^I¹"[DBdf] "^V"[FAcf] "^IV"[EBeg] "^I¹"[DFBf] | "^IV"[EGBg] "^V"[Fca] "^I"[B,Fdb]2 | [B,Bdf]2 [B,Bdf] "^IV"[E,GBe] | "^I"[B,FBd] "^ii"[CGce] "^V"[F,Acf] "^vi"[G,DGB] | "^I"[B,Fd] "^V"[F,FAc] "^vi"[G,DGB]2 | [G,GBd]2 "^ii"[CGce] "^I"[B,Bdf] | "^IV"[E,Beg] "^I"[B,Bdf] "^V¹"[A,Fcf] "^vi"[G,Bdg] | "^V"[F,cfa] "^II"[Cc=eg]/ "^II7"[CB=eg]/ "^V"[F,Af]2 | "^vi"[G,Gdb]2 "^iii"[DFfa] "^IV"[EBeg] | "^ii"[Ccec'] "^V"[F,Afc'] [Fcfa] "^I¹"[DBf] | "^IV"[EBeg] "^V"[Fca] "^I"[B,Fdb]2 | "^vi"[G,Gdb]2 "^III"[D_Gda] "^IV"[EGBg] | "^I"[B,DBf] "^IV¹"[G,EBg] "^V"[F,FAa] "^I"[B,Ddf] | "^ii"[CGce] "^V"[F,FAf] "^I"[B,FBd]2 | "^vi"[G,Gdb]2 "^III"[D_Gda] "^IV"[EGBg] | "^I"[B,DBf] "^IV¹"[G,EBg] "^V"[F,FAa] "^I"[B,Ddf] | "^ii"[CGce] "^V"[F,FAf] "^I"[B,FBd]2 | "^vi"[G,Gdb]2 "^III"[D_Gda] "^IV"[EGBg] | "^I"[B,DBf] "^IV¹"[G,EBg] "^V"[F,FAa] "^I"[B,Ddf] | "^ii"[CGce] "^V"[F,FAf] "^I"[B,FBd]2 | "^IV"[E,EBg]2 "^I"[B,DBf] "^IV¹"[G,EBe] | "^V"[F,CAf] "^IV¹"[G,EGB] "^♭VII"[_A,_Ace] "^I"[B,FBd] | "^ii7¹"[E,GBc] "^V"[F,FAc] "^I"[B,DB]2 | "^vi"[G,DGB]2 "^V"[F,FAf] "^V¹"[A,Fcf] | "^I"[B,FBd] "^ii"[CEGe] "^V¹"[A,CAf] "^vi¹"[B,Ddg] | "^II"[C=Ecg] "^v"[F,Fcf]/ [F,FBf]/ "^V"[F,CAf]2 | "^I"[B,DBf]2 "^IV"[E,GBe] "^I"[B,FBd] | "^ii"[CEGe] [CEAc] "^I"[B,FBd] "^ii¹"[E,EGc] | "^I²"[F,DFB] "^V"[F,CFA] "^I"[B,DFB]2 |]
